T: Julia Delaney's
M: 4/4
L: 1/8
K: Ddor
||:d=cAG F2DF |E2CE FEFA |dBAG F2EF| Add^c defe|d=cAG F2DF |E2CE FEFA |dBAG F2EF|1 Add^c d4:||2 Add^c d2de||:fede fagf |e=cgc acgc |fede fagf |edcB Adde |fede fagf |ecgc acgc |fedf edcB |Add^c d2de:||
